X:7
T:OldSimon Brodie
S:JamesBowie fiddle MS, Edinburgh 1705
S:"Pete Stewart" <pete:wintonpottery.co.uk> tradtunes 2010-2-6
M:4/4
L:1/4
K:Gdorian
BGB2| AFA/B/c/d/ | BGB2 | Ge/f/gd | fddc/B/ | AFA/B/c/d/ | BGB2 | BGBd ||
BGgd/e/| fF/G/ A/B/c/d/ | BGg/a/b/g/ | G/d/e/f/gd/e/ | f/g/a/g/f/d/c/B/ | AFA/B/c/d/ | BGgG/A/ | BGBd ||
G/A/Bd/e/f| F/G/AA/B/c | G/A/Bg/a/b | f/g/a/g/ f/d/c/B/ | A/f/F/G/ A/B/c/A/ | G/A/B/c/ d/e/f/d/ | gG/A/ B/c/d/B/ ||
